X: 102
T: Miss Campbell of Menzies
T: Reel, C
C: Donald Dow
L: 1/16
M: C
K: C
|: B2| c4G2c2 e2c2G2E2| F2d2E2c2 d2D2D2B2| c4G2c2 e2c2G2E2| F2A2D2F2 E2C2C2:| 
f2| e2c2g2c2 a2c2g2c2| e2c2a1g1f1e1 f2d2d2f2| g2c2a2c2 g2c2e2c2| B2c2d2f2 e2c2c2f2|
e2c2g2c2 a2c2g2c2| e2g2c2e2 f2d2d2f2| g2e2c2f2 a2f2d2c2| B2c2d2f2 e2c2c2||
